packages/connectors/hull-customerio/assets/picture.svg

<svg height="360" viewBox="0 0 640 360" width="640" xmlns="http://www.w3.org/2000/svg"><g fill="none" fill-rule="evenodd"><path d="m0 0h640v360h-640z" fill="#2f326a"/><g fill="#fff"><path d="m319.941 146.3432c-12.797 0-23.172-10.3743-23.172-23.1716s10.375-23.1716 23.172-23.1716 23.172 10.3743 23.172 23.1716-10.375 23.1716-23.172 23.1716zm-27.508-1.9237-16.465 16.4647c-8.6993-10.134-13.9558-23.3094-13.9558-37.7126h12.9578c5.641 0 10.063 4.6692 11.695 10.0689 1.238 4.097 3.212 7.8746 5.768 11.179zm-10.205 22.7252 16.465-16.4647c5.875 4.5446 13.246 7.2489 21.248 7.2489s15.373-2.7043 21.248-7.2488l16.465 16.4647c-10.134 8.6992-23.31 13.9557-37.713 13.9557s-27.578-5.2565-37.713-13.9558zm65.222-22.7251c2.556-3.3045 4.53-7.0821 5.768-11.1791 1.631-5.3997 6.053-10.0689 11.694-10.0689h12.958c0 14.4032-5.256 27.5787-13.956 37.7127z" fill-rule="nonzero"/><path d="m427.032 216.895h6.39v27.209h-6.39zm3.221-4.483c-1.159 0-2.13-.357-2.914-1.07-.784-.748-1.176-1.665-1.176-2.752s.392-1.987 1.176-2.7c.784-.748 1.755-1.121 2.914-1.121 1.158 0 2.129.356 2.913 1.07.784.679 1.176 1.545 1.176 2.598 0 1.121-.392 2.072-1.176 2.854-.75.747-1.721 1.121-2.913 1.121zm-12.634 32.049c-1.158 0-2.147-.391-2.965-1.172-.817-.815-1.226-1.834-1.226-3.057 0-1.257.392-2.276 1.175-3.057.818-.782 1.824-1.172 3.016-1.172 1.193 0 2.181.39 2.965 1.172.818.781 1.227 1.8 1.227 3.057 0 1.223-.409 2.242-1.227 3.057-.818.781-1.806 1.172-2.965 1.172zm27.972-1.783c2.215 1.188 4.703 1.783 7.463 1.783 2.795 0 5.299-.595 7.514-1.783 2.216-1.189 3.937-2.837 5.163-4.943 1.261-2.14 1.892-4.552 1.892-7.235 0-2.684-.631-5.078-1.892-7.185-1.226-2.106-2.947-3.753-5.163-4.942-2.215-1.189-4.719-1.783-7.514-1.783-2.76 0-5.248.594-7.463 1.783s-3.953 2.836-5.214 4.942c-1.227 2.107-1.84 4.501-1.84 7.185 0 2.683.613 5.095 1.84 7.235 1.261 2.106 2.999 3.754 5.214 4.943zm13.291-6.013c-1.534 1.563-3.476 2.344-5.828 2.344-2.351 0-4.294-.781-5.827-2.344-1.5-1.562-2.249-3.618-2.249-6.165 0-2.548.749-4.603 2.249-6.165 1.533-1.563 3.476-2.344 5.827-2.344 2.352 0 4.294.781 5.828 2.344 1.533 1.562 2.3 3.617 2.3 6.165 0 2.547-.767 4.603-2.3 6.165zm-180.64 5.974c-.744.607-1.657 1.063-2.74 1.366-1.049.304-2.165.456-3.349.456-2.9772 0-5.2777-.776-6.9016-2.329-1.6239-1.552-2.4358-3.813-2.4358-6.783v-24.247h6.3433v6.176h7.2571v5.062h-7.2571v12.857c0 1.317.3214 2.329.9642 3.038.6428.675 1.5731 1.012 2.7909 1.012 1.421 0 2.605-.371 3.552-1.114zm-91.5763 1.822c-2.808 0-5.32838-.591-7.56122-1.772-2.23283-1.181-3.97512-2.818-5.22687-4.91-1.251739-2.126-1.87761-4.522-1.87761-7.188s.625871-5.045 1.87761-7.137c1.25175-2.093 2.97712-3.729 5.17613-4.911 2.23284-1.181 4.77016-1.771 7.61196-1.771 2.6726 0 5.007.54 7.003 1.62 2.0298 1.079 3.5522 2.632 4.5671 4.657l-4.8716 2.834c-.7781-1.248-1.7592-2.176-2.9433-2.784-1.1502-.641-2.4189-.962-3.806-.962-2.3681 0-4.3303.777-5.88653 2.329-1.55622 1.519-2.33433 3.56-2.33433 6.125s.76119 4.623 2.28358 6.176c1.55618 1.518 3.53528 2.278 5.93728 2.278 1.3871 0 2.6558-.304 3.806-.912 1.1841-.641 2.1652-1.586 2.9433-2.834l4.8716 2.834c-1.0487 2.025-2.588 3.594-4.6179 4.708-1.996 1.08-4.3134 1.62-6.9522 1.62zm52.2926-.861c2.0975.574 4.2457.861 6.4448.861 3.789 0 6.783-.759 8.982-2.278s3.2986-3.543 3.2986-6.074c0-1.924-.5075-3.409-1.5224-4.455-.9811-1.046-2.1652-1.789-3.5523-2.227-1.387-.439-3.1632-.827-5.3283-1.165-2.1652-.371-3.7722-.759-4.8209-1.164-1.015-.439-1.5224-1.164-1.5224-2.176 0-.912.4736-1.637 1.4209-2.177.9811-.574 2.402-.861 4.2627-.861 2.8756 0 5.4636.675 7.7641 2.025l2.4359-4.809c-1.1841-.708-2.7065-1.265-4.5672-1.67-1.8607-.439-3.7214-.658-5.5821-.658-3.6537 0-6.5632.776-8.7284 2.328-2.1313 1.519-3.197 3.561-3.197 6.125 0 1.958.5075 3.493 1.5224 4.607 1.0488 1.08 2.2667 1.839 3.6537 2.278 1.4209.438 3.2478.826 5.4807 1.164 2.1313.337 3.6706.692 4.6179 1.063.9811.371 1.4716 1.029 1.4716 1.974 0 1.991-1.8945 2.987-5.6836 2.987-1.6577 0-3.3492-.237-5.0746-.709-1.6916-.506-3.1463-1.164-4.3642-1.974l-2.4358 4.809c1.2517.877 2.9264 1.603 5.0239 2.176zm48.3807-.911c2.199 1.181 4.668 1.772 7.409 1.772 2.774 0 5.26-.591 7.459-1.772s3.908-2.818 5.126-4.91c1.252-2.126 1.877-4.522 1.877-7.188s-.625-5.045-1.877-7.137c-1.218-2.093-2.927-3.729-5.126-4.911-2.199-1.181-4.685-1.771-7.459-1.771-2.741 0-5.21.59-7.409 1.771-2.199 1.182-3.925 2.818-5.176 4.911-1.218 2.092-1.827 4.471-1.827 7.137s.609 5.062 1.827 7.188c1.251 2.092 2.977 3.729 5.176 4.91zm13.194-5.973c-1.523 1.552-3.451 2.329-5.785 2.329-2.335 0-4.263-.777-5.785-2.329-1.489-1.552-2.233-3.594-2.233-6.125s.744-4.573 2.233-6.125c1.522-1.552 3.45-2.329 5.785-2.329 2.334 0 4.262.777 5.785 2.329 1.522 1.552 2.283 3.594 2.283 6.125s-.761 4.573-2.283 6.125zm48.946-19.944c3.417 0 6.124.995 8.12 2.986 1.996 1.958 2.994 4.91 2.994 8.859v15.49h-6.344v-14.68c0-2.363-.524-4.134-1.573-5.315-1.049-1.215-2.554-1.823-4.516-1.823-2.132 0-3.84.709-5.126 2.126-1.285 1.384-1.928 3.375-1.928 5.973v13.719h-6.343v-14.68c0-2.363-.525-4.134-1.573-5.315-1.049-1.215-2.555-1.823-4.517-1.823-2.165 0-3.89.692-5.176 2.076-1.252 1.383-1.878 3.391-1.878 6.023v13.719h-6.343v-15.126c0-7.583 5.743-12.209 13.249-12.209 2.03 0 5.494.388 7.05 1.164 1.59.742 2.842 1.856 3.755 3.341 1.116-1.417 2.554-2.514 4.313-3.29 1.76-.81 3.705-1.215 5.836-1.215zm44.841 15.844c.067-.81.101-1.434.101-1.873 0-2.767-.592-5.197-1.776-7.289-1.15-2.126-2.774-3.763-4.872-4.911-2.063-1.181-4.415-1.771-7.053-1.771-2.673 0-5.075.59-7.206 1.771-2.132 1.182-3.806 2.835-5.024 4.961-1.184 2.092-1.776 4.455-1.776 7.087 0 2.666.608 5.062 1.826 7.188 1.252 2.092 3.011 3.729 5.278 4.91s4.889 1.772 7.866 1.772c2.334 0 4.432-.371 6.292-1.114 1.861-.742 3.4-1.839 4.618-3.29l-3.4-3.898c-1.928 1.957-4.381 2.936-7.358 2.936-2.334 0-4.297-.574-5.887-1.721-1.556-1.181-2.52-2.767-2.892-4.758zm-18.777-8.96c1.421-1.215 3.147-1.822 5.177-1.822 2.063 0 3.789.607 5.176 1.822s2.216 2.801 2.486 4.758h-15.376c.305-1.991 1.15-3.577 2.537-4.758zm40.652-6.884v6.023c-.542-.101-1.032-.151-1.472-.151-2.47 0-4.398.725-5.785 2.176-1.387 1.418-2.081 3.476-2.081 6.176v13.111h-6.343v-13.63c0-9.881 6.343-14.943 15.681-13.705zm-200.1128 27.689c-3.6136-.004-7.4757-1-9.5689-2.987-2.0637-2.024-3.0955-5.011-3.0955-8.959v-15.439h6.3432v14.578c0 2.43.5413 4.252 1.6239 5.467 1.1164 1.181 2.6896 1.772 4.7194 1.772 2.0192-.005 3.585-.595 4.6973-1.772 1.0826-1.215 1.6239-3.037 1.6239-5.467v-14.578h6.3433v15.439c0 3.948-1.0318 6.935-3.0955 8.959-2.0975 1.992-5.9712 2.987-9.5911 2.987z"/></g></g></svg>

<?xml version="1.0" encoding="UTF-8"?>
<svg width="640px" height="360px" viewBox="0 0 640 360" version="1.1" xmlns="http://www.w3.org/2000/svg" xmlns:xlink="http://www.w3.org/1999/xlink">
    <!-- Generator: Sketch 53 (72520) - https://sketchapp.com -->
    <title>customerio/picture</title>
    <desc>Created with Sketch.</desc>
    <g id="customerio/picture" stroke="none" stroke-width="1" fill="none" fill-rule="evenodd">
        <rect id="Rectangle" fill="#2F326A" x="0" y="0" width="640" height="360"></rect>
        <path d="M319.941,146.3432 C307.144,146.3432 296.769,135.9689 296.769,123.1716 C296.769,110.3743 307.144,100 319.941,100 C332.738,100 343.113,110.3743 343.113,123.1716 C343.113,135.9689 332.738,146.3432 319.941,146.3432 Z M292.433,144.4195 L275.968,160.8842 C267.2687,150.7502 262.0122,137.5748 262.0122,123.1716 L274.97,123.1716 C280.611,123.1716 285.033,127.8408 286.665,133.2405 C287.903,137.3375 289.877,141.1151 292.433,144.4195 Z M282.228,167.1447 L298.693,150.68 C304.568,155.2246 311.939,157.9289 319.941,157.9289 C327.943,157.9289 335.314,155.2246 341.189,150.6801 L357.654,167.1448 C347.52,175.844 334.344,181.1005 319.941,181.1005 C305.538,181.1005 292.363,175.844 282.228,167.1447 Z M347.45,144.4196 C350.006,141.1151 351.98,137.3375 353.218,133.2405 C354.849,127.8408 359.271,123.1716 364.912,123.1716 L377.87,123.1716 C377.87,137.5748 372.614,150.7503 363.914,160.8843 L347.45,144.4196 Z" id="Combined-Shape" fill="#FFFFFF" fill-rule="nonzero"></path>
        <path d="M427.032,216.895 L433.422,216.895 L433.422,244.104 L427.032,244.104 L427.032,216.895 Z M430.253,212.412 C429.094,212.412 428.123,212.055 427.339,211.342 C426.555,210.594 426.163,209.677 426.163,208.59 C426.163,207.503 426.555,206.603 427.339,205.89 C428.123,205.142 429.094,204.769 430.253,204.769 C431.411,204.769 432.382,205.125 433.166,205.839 C433.95,206.518 434.342,207.384 434.342,208.437 C434.342,209.558 433.95,210.509 433.166,211.291 C432.416,212.038 431.445,212.412 430.253,212.412 Z M417.619,244.461 C416.461,244.461 415.472,244.07 414.654,243.289 C413.837,242.474 413.428,241.455 413.428,240.232 C413.428,238.975 413.82,237.956 414.603,237.175 C415.421,236.393 416.427,236.003 417.619,236.003 C418.812,236.003 419.8,236.393 420.584,237.175 C421.402,237.956 421.811,238.975 421.811,240.232 C421.811,241.455 421.402,242.474 420.584,243.289 C419.766,244.07 418.778,244.461 417.619,244.461 Z M445.591,242.678 C447.806,243.866 450.294,244.461 453.054,244.461 C455.849,244.461 458.353,243.866 460.568,242.678 C462.784,241.489 464.505,239.841 465.731,237.735 C466.992,235.595 467.623,233.183 467.623,230.5 C467.623,227.816 466.992,225.422 465.731,223.315 C464.505,221.209 462.784,219.562 460.568,218.373 C458.353,217.184 455.849,216.59 453.054,216.59 C450.294,216.59 447.806,217.184 445.591,218.373 C443.376,219.562 441.638,221.209 440.377,223.315 C439.15,225.422 438.537,227.816 438.537,230.5 C438.537,233.183 439.15,235.595 440.377,237.735 C441.638,239.841 443.376,241.489 445.591,242.678 Z M458.882,236.665 C457.348,238.228 455.406,239.009 453.054,239.009 C450.703,239.009 448.76,238.228 447.227,236.665 C445.727,235.103 444.978,233.047 444.978,230.5 C444.978,227.952 445.727,225.897 447.227,224.335 C448.76,222.772 450.703,221.991 453.054,221.991 C455.406,221.991 457.348,222.772 458.882,224.335 C460.415,225.897 461.182,227.952 461.182,230.5 C461.182,233.047 460.415,235.103 458.882,236.665 Z M278.242,242.639 C277.498,243.246 276.585,243.702 275.502,244.005 C274.453,244.309 273.337,244.461 272.153,244.461 C269.1758,244.461 266.8753,243.685 265.2514,242.132 C263.6275,240.58 262.8156,238.319 262.8156,235.349 L262.8156,211.102 L269.1589,211.102 L269.1589,217.278 L276.416,217.278 L276.416,222.34 L269.1589,222.34 L269.1589,235.197 C269.1589,236.514 269.4803,237.526 270.1231,238.235 C270.7659,238.91 271.6962,239.247 272.914,239.247 C274.335,239.247 275.519,238.876 276.466,238.133 L278.242,242.639 Z M186.6657,244.461 C183.8577,244.461 181.33732,243.87 179.10448,242.689 C176.87165,241.508 175.12936,239.871 173.87761,237.779 C172.625871,235.653 172,233.257 172,230.591 C172,227.925 172.625871,225.546 173.87761,223.454 C175.12936,221.361 176.85473,219.725 179.05374,218.543 C181.28658,217.362 183.8239,216.772 186.6657,216.772 C189.3383,216.772 191.6727,217.312 193.6687,218.392 C195.6985,219.471 197.2209,221.024 198.2358,223.049 L193.3642,225.883 C192.5861,224.635 191.605,223.707 190.4209,223.099 C189.2707,222.458 188.002,222.137 186.6149,222.137 C184.2468,222.137 182.2846,222.914 180.72837,224.466 C179.17215,225.985 178.39404,228.026 178.39404,230.591 C178.39404,233.156 179.15523,235.214 180.67762,236.767 C182.2338,238.285 184.2129,239.045 186.6149,239.045 C188.002,239.045 189.2707,238.741 190.4209,238.133 C191.605,237.492 192.5861,236.547 193.3642,235.299 L198.2358,238.133 C197.1871,240.158 195.6478,241.727 193.6179,242.841 C191.6219,243.921 189.3045,244.461 186.6657,244.461 Z M238.9583,243.6 C241.0558,244.174 243.204,244.461 245.4031,244.461 C249.1921,244.461 252.1861,243.702 254.3851,242.183 C256.5841,240.664 257.6837,238.64 257.6837,236.109 C257.6837,234.185 257.1762,232.7 256.1613,231.654 C255.1802,230.608 253.9961,229.865 252.609,229.427 C251.222,228.988 249.4458,228.6 247.2807,228.262 C245.1155,227.891 243.5085,227.503 242.4598,227.098 C241.4448,226.659 240.9374,225.934 240.9374,224.922 C240.9374,224.01 241.411,223.285 242.3583,222.745 C243.3394,222.171 244.7603,221.884 246.621,221.884 C249.4966,221.884 252.0846,222.559 254.3851,223.909 L256.821,219.1 C255.6369,218.392 254.1145,217.835 252.2538,217.43 C250.3931,216.991 248.5324,216.772 246.6717,216.772 C243.018,216.772 240.1085,217.548 237.9433,219.1 C235.812,220.619 234.7463,222.661 234.7463,225.225 C234.7463,227.183 235.2538,228.718 236.2687,229.832 C237.3175,230.912 238.5354,231.671 239.9224,232.11 C241.3433,232.548 243.1702,232.936 245.4031,233.274 C247.5344,233.611 249.0737,233.966 250.021,234.337 C251.0021,234.708 251.4926,235.366 251.4926,236.311 C251.4926,238.302 249.5981,239.298 245.809,239.298 C244.1513,239.298 242.4598,239.061 240.7344,238.589 C239.0428,238.083 237.5881,237.425 236.3702,236.615 L233.9344,241.424 C235.1861,242.301 236.8608,243.027 238.9583,243.6 Z M287.339,242.689 C289.538,243.87 292.007,244.461 294.748,244.461 C297.522,244.461 300.008,243.87 302.207,242.689 C304.406,241.508 306.115,239.871 307.333,237.779 C308.585,235.653 309.21,233.257 309.21,230.591 C309.21,227.925 308.585,225.546 307.333,223.454 C306.115,221.361 304.406,219.725 302.207,218.543 C300.008,217.362 297.522,216.772 294.748,216.772 C292.007,216.772 289.538,217.362 287.339,218.543 C285.14,219.725 283.414,221.361 282.163,223.454 C280.945,225.546 280.336,227.925 280.336,230.591 C280.336,233.257 280.945,235.653 282.163,237.779 C283.414,239.871 285.14,241.508 287.339,242.689 Z M300.533,236.716 C299.01,238.268 297.082,239.045 294.748,239.045 C292.413,239.045 290.485,238.268 288.963,236.716 C287.474,235.164 286.73,233.122 286.73,230.591 C286.73,228.06 287.474,226.018 288.963,224.466 C290.485,222.914 292.413,222.137 294.748,222.137 C297.082,222.137 299.01,222.914 300.533,224.466 C302.055,226.018 302.816,228.06 302.816,230.591 C302.816,233.122 302.055,235.164 300.533,236.716 Z M349.479,216.772 C352.896,216.772 355.603,217.767 357.599,219.758 C359.595,221.716 360.593,224.668 360.593,228.617 L360.593,244.107 L354.249,244.107 L354.249,229.427 C354.249,227.064 353.725,225.293 352.676,224.112 C351.627,222.897 350.122,222.289 348.16,222.289 C346.028,222.289 344.32,222.998 343.034,224.415 C341.749,225.799 341.106,227.79 341.106,230.388 L341.106,244.107 L334.763,244.107 L334.763,229.427 C334.763,227.064 334.238,225.293 333.19,224.112 C332.141,222.897 330.635,222.289 328.673,222.289 C326.508,222.289 324.783,222.981 323.497,224.365 C322.245,225.748 321.619,227.756 321.619,230.388 L321.619,244.107 L315.276,244.107 L315.276,228.981 C315.276,221.398 321.019,216.772 328.525,216.772 C330.555,216.772 334.019,217.16 335.575,217.936 C337.165,218.678 338.417,219.792 339.33,221.277 C340.446,219.86 341.884,218.763 343.643,217.987 C345.403,217.177 347.348,216.772 349.479,216.772 Z M394.32,232.616 C394.387,231.806 394.421,231.182 394.421,230.743 C394.421,227.976 393.829,225.546 392.645,223.454 C391.495,221.328 389.871,219.691 387.773,218.543 C385.71,217.362 383.358,216.772 380.72,216.772 C378.047,216.772 375.645,217.362 373.514,218.543 C371.382,219.725 369.708,221.378 368.49,223.504 C367.306,225.596 366.714,227.959 366.714,230.591 C366.714,233.257 367.322,235.653 368.54,237.779 C369.792,239.871 371.551,241.508 373.818,242.689 C376.085,243.87 378.707,244.461 381.684,244.461 C384.018,244.461 386.116,244.09 387.976,243.347 C389.837,242.605 391.376,241.508 392.594,240.057 L389.194,236.159 C387.266,238.116 384.813,239.095 381.836,239.095 C379.502,239.095 377.539,238.521 375.949,237.374 C374.393,236.193 373.429,234.607 373.057,232.616 L394.32,232.616 Z M375.543,223.656 C376.964,222.441 378.69,221.834 380.72,221.834 C382.783,221.834 384.509,222.441 385.896,223.656 C387.283,224.871 388.112,226.457 388.382,228.414 L373.006,228.414 C373.311,226.423 374.156,224.837 375.543,223.656 Z M416.195,216.772 L416.195,222.795 C415.653,222.694 415.163,222.644 414.723,222.644 C412.253,222.644 410.325,223.369 408.938,224.82 C407.551,226.238 406.857,228.296 406.857,230.996 L406.857,244.107 L400.514,244.107 L400.514,230.477 C400.514,220.596 406.857,215.534 416.195,216.772 Z M216.0822,244.461 C212.4686,244.457 208.6065,243.461 206.5133,241.474 C204.4496,239.45 203.4178,236.463 203.4178,232.515 L203.4178,217.076 L209.761,217.076 L209.761,231.654 C209.761,234.084 210.3023,235.906 211.3849,237.121 C212.5013,238.302 214.0745,238.893 216.1043,238.893 C218.1235,238.888 219.6893,238.298 220.8016,237.121 C221.8842,235.906 222.4255,234.084 222.4255,231.654 L222.4255,217.076 L228.7688,217.076 L228.7688,232.515 C228.7688,236.463 227.737,239.45 225.6733,241.474 C223.5758,243.466 219.7021,244.461 216.0822,244.461 Z" id="Shape" fill="#FFFFFF"></path>
    </g>
</svg>
